src/assets/aboutUs/vision.svg

<svg fill="none" height="96" viewBox="0 0 103 96" width="103" xmlns="http://www.w3.org/2000/svg" xmlns:xlink="http://www.w3.org/1999/xlink"><clipPath id="a"><path d="m.984375.598663h102v95h-102z"/></clipPath><g clip-path="url(#a)"><path d="m51.759 23.6528c-29.0541 0-41.87716 24.5366-41.87716 24.5366s12.82306 24.5366 41.87716 24.5366c29.0542 0 41.8773-24.5366 41.8773-24.5366s-12.8231-24.5366-41.8773-24.5366z" fill="#fff" stroke="#000080" stroke-linecap="round" stroke-linejoin="round" stroke-width="2"/><path d="m51.7591 68.4904c11.2767 0 20.4182-9.0891 20.4182-20.301s-9.1415-20.3009-20.4182-20.3009-20.4183 9.089-20.4183 20.3009 9.1416 20.301 20.4183 20.301z" fill="#000"/><path d="m59.1783 36.9528c1.2537 0 2.27-1.0105 2.27-2.257s-1.0163-2.257-2.27-2.257c-1.2538 0-2.2701 1.0105-2.2701 2.257s1.0163 2.257 2.2701 2.257z" fill="#fff"/><g stroke-linecap="round" stroke-linejoin="round" stroke-width="2"><path d="m51.7588 19.2901v-18.08633" stroke="#000080"/><path d="m36.2278 21.4503-7.8508-13.51787" stroke="#000080"/><path d="m20.5627 30.2363-13.85762-7.957" stroke="#000080"/><path d="m67.0225 21.7528 8.0212-13.82037" stroke="#000080"/><path d="m82.9795 30.0124 13.8576-7.957" stroke="#000080"/><path d="m44.1333 19.9194-2.5317-9.3972" stroke="#00d4c6"/><path d="m28.389 24.9356-7.4857-7.4427" stroke="#00d4c6"/><path d="m12.8517 37.6971-11.25893-3.0013" stroke="#00d4c6"/><path d="m59.5303 19.9194 2.5317-9.3972" stroke="#00d4c6"/><path d="m75.208 24.8811 7.4857-7.4487" stroke="#00d4c6"/><path d="m90.7334 37.7334 11.6426-3.0981" stroke="#00d4c6"/><path d="m51.7588 76.9073v18.0863" stroke="#000080"/><path d="m36.2278 74.7471-7.8508 13.5178" stroke="#000080"/><path d="m20.5627 65.9611-13.85762 7.957" stroke="#000080"/><path d="m67.0225 74.4445 8.0212 13.8204" stroke="#000080"/><path d="m82.9795 66.185 13.8576 7.957" stroke="#000080"/><path d="m44.1333 76.278-2.5317 9.3971" stroke="#00d4c6"/><path d="m28.389 71.2617-7.4857 7.4427" stroke="#00d4c6"/><path d="m12.8517 58.5003-11.25893 3.0012" stroke="#00d4c6"/><path d="m59.5303 76.278 2.5317 9.3971" stroke="#00d4c6"/><path d="m75.208 71.3162 7.4857 7.4487" stroke="#00d4c6"/><path d="m90.7334 58.464 11.6426 3.098" stroke="#00d4c6"/></g></g></svg>

<svg width="103" height="96" viewBox="0 0 103 96" fill="none" xmlns="http://www.w3.org/2000/svg">
<g clip-path="url(#clip0_565_4268)">
<path d="M51.759 23.6528C22.7049 23.6528 9.88184 48.1894 9.88184 48.1894C9.88184 48.1894 22.7049 72.726 51.759 72.726C80.8132 72.726 93.6363 48.1894 93.6363 48.1894C93.6363 48.1894 80.8132 23.6528 51.759 23.6528Z" fill="white" stroke="#000080" stroke-width="2" stroke-linecap="round" stroke-linejoin="round"/>
<path d="M51.7591 68.4904C63.0358 68.4904 72.1773 59.4013 72.1773 48.1894C72.1773 36.9775 63.0358 27.8885 51.7591 27.8885C40.4824 27.8885 31.3408 36.9775 31.3408 48.1894C31.3408 59.4013 40.4824 68.4904 51.7591 68.4904Z" fill="black"/>
<path d="M59.1783 36.9528C60.432 36.9528 61.4483 35.9423 61.4483 34.6958C61.4483 33.4493 60.432 32.4388 59.1783 32.4388C57.9245 32.4388 56.9082 33.4493 56.9082 34.6958C56.9082 35.9423 57.9245 36.9528 59.1783 36.9528Z" fill="white"/>
<path d="M51.7588 19.2901V1.20377" stroke="#000080" stroke-width="2" stroke-linecap="round" stroke-linejoin="round"/>
<path d="M36.2278 21.4503L28.377 7.93243" stroke="#000080" stroke-width="2" stroke-linecap="round" stroke-linejoin="round"/>
<path d="M20.5627 30.2363L6.70508 22.2793" stroke="#000080" stroke-width="2" stroke-linecap="round" stroke-linejoin="round"/>
<path d="M67.0225 21.7528L75.0437 7.93243" stroke="#000080" stroke-width="2" stroke-linecap="round" stroke-linejoin="round"/>
<path d="M82.9795 30.0124L96.8371 22.0554" stroke="#000080" stroke-width="2" stroke-linecap="round" stroke-linejoin="round"/>
<path d="M44.1333 19.9194L41.6016 10.5222" stroke="#00D4C6" stroke-width="2" stroke-linecap="round" stroke-linejoin="round"/>
<path d="M28.389 24.9356L20.9033 17.4929" stroke="#00D4C6" stroke-width="2" stroke-linecap="round" stroke-linejoin="round"/>
<path d="M12.8517 37.6971L1.59277 34.6958" stroke="#00D4C6" stroke-width="2" stroke-linecap="round" stroke-linejoin="round"/>
<path d="M59.5303 19.9194L62.062 10.5222" stroke="#00D4C6" stroke-width="2" stroke-linecap="round" stroke-linejoin="round"/>
<path d="M75.208 24.8811L82.6937 17.4324" stroke="#00D4C6" stroke-width="2" stroke-linecap="round" stroke-linejoin="round"/>
<path d="M90.7334 37.7334L102.376 34.6353" stroke="#00D4C6" stroke-width="2" stroke-linecap="round" stroke-linejoin="round"/>
<path d="M51.7588 76.9073V94.9936" stroke="#000080" stroke-width="2" stroke-linecap="round" stroke-linejoin="round"/>
<path d="M36.2278 74.7471L28.377 88.2649" stroke="#000080" stroke-width="2" stroke-linecap="round" stroke-linejoin="round"/>
<path d="M20.5627 65.9611L6.70508 73.9181" stroke="#000080" stroke-width="2" stroke-linecap="round" stroke-linejoin="round"/>
<path d="M67.0225 74.4445L75.0437 88.2649" stroke="#000080" stroke-width="2" stroke-linecap="round" stroke-linejoin="round"/>
<path d="M82.9795 66.185L96.8371 74.142" stroke="#000080" stroke-width="2" stroke-linecap="round" stroke-linejoin="round"/>
<path d="M44.1333 76.278L41.6016 85.6751" stroke="#00D4C6" stroke-width="2" stroke-linecap="round" stroke-linejoin="round"/>
<path d="M28.389 71.2617L20.9033 78.7044" stroke="#00D4C6" stroke-width="2" stroke-linecap="round" stroke-linejoin="round"/>
<path d="M12.8517 58.5003L1.59277 61.5015" stroke="#00D4C6" stroke-width="2" stroke-linecap="round" stroke-linejoin="round"/>
<path d="M59.5303 76.278L62.062 85.6751" stroke="#00D4C6" stroke-width="2" stroke-linecap="round" stroke-linejoin="round"/>
<path d="M75.208 71.3162L82.6937 78.7649" stroke="#00D4C6" stroke-width="2" stroke-linecap="round" stroke-linejoin="round"/>
<path d="M90.7334 58.464L102.376 61.562" stroke="#00D4C6" stroke-width="2" stroke-linecap="round" stroke-linejoin="round"/>
</g>
<defs>
<clipPath id="clip0_565_4268">
<rect width="102" height="95" fill="white" transform="translate(0.984375 0.598663)"/>
</clipPath>
</defs>
</svg>
